X: 25712
T: Mary Brennan's Favourite
R: polka
M: 2/4
K: Gmajor
|:G>E D2 D>FG>B|A>GE>F G>Bd>c|B>DD>D E>FG>B|A>GE>F G2 G2:|
|:B2 B>A B>cd>B|A2 A>G A>dd>c|B>BB>A B>cd>B|A>GE>F G2 G2:|

